X:1
T:Continuer ie veulx
T:François Bourguignon
T:Source : Livre V de 25 chansons nouvelles à 4 parties---Paris---P.Attaingnant---1540. Editor : André Vierendeels (13/05/18) Notes : Original clefs : G2, C2, C3, C4 Original note values have been halved Editorial accidentals above the staff Square bracket indicates ligature
T:Continuer ie veulx
T:©
T:©
T:©
T:©
C:François Bourguignon
Z:©
%%score [ 1 2 3 4 ]
L:1/8
Q:1/4=120
M:2/2
K:C
V:1 treble nm="Soprano" snm="S"
V:2 treble nm="Alto" snm="A"
V:3 treble-8 nm="Tenor 1" snm="T 1"
V:4 treble-8 nm="Tenor 2" snm="T 2"
V:1
 z8 | z8 | z2 A2 A2 A2 | c3 d e2 c2 | d2 f3 edc | d2 e2 c2 f2 | ed d4 c2 | d3 c dccB/A/ | %8
w: ||Con- ti- nu-|er _ _ ie|veulx ma _ _ _|_ _ _ fer-|* * * me-|té, _ _ _ _ _ _|
 B4 z2 e2 | e2 e2 A4 | z2 e2 f2 f2 | e2 c2 d4 | c3 d ef g2- | gf f4 e2 | f4 z2 c2 | d2 f2 e4 | %16
w: _ don-|ne moy donc|ung pe- tit|à con- gnoy-|||stre, ton|a- my- tié,|
 z2 c2 c2 c2 | A2 c4 B2 | c3 d e2 d2- | de f4 ed | c8- | c4 z4 | z2 A2 A2 A2 | c3 d e2 c2 | %24
w: ton es- tat|et ton es-|||tre,|_|vueil- lant pen-|ser _ _ ce|
 d2 f3 edc | d2 e2 c2 f2 | ed d4 c2 | d2 f4 ed | e4 z4 | z2 A2 A2 A2 | c3 d e2 c2 | d2 f3 edc | %32
w: que iay _ _ _|_ _ _ _|* * me- ri-|té, _ _ _|_|vueil- lant pen-|ser _ _ ce|que iay _ _ _|
 d2 e2 c2 f2 | ed d4 c2 | d8 |] %35
w: _ _ _ _|* * me- ri-|té..|
V:2
 A,4 A,2 A,2 | C3 D E4 | z2 E2 F2 F2 | E8 | z2 A2 G2 F2 | _B2 B2 A2 c2- |"^-natural" cB G2 A3 G | %7
w: Con- ti- nu-|er, _ _|con- ti- nu-|er|ie veulx ma|fer- me- té, ma|_ _ _ _ _|
 A2 B3 A A2- | A2 G2 A4- | A4 z4 | z4 z2 A2 | A2 A2 D4 |"^b" z2 A2 B2 B2 |"^b" A3 B c4 | A4 z2 A2 | %15
w: * fer- * *|* me- té,|_|don-|ne moy donc|ung pe- tit|à- con gnoy-|stre, ton|
 G2 F2 c4 | z2 A2 A2 G2 | F2 ED C2 D2 | C2 A2 G2 F2 |"^b" BA A4 G2 | A2 A,2 A,2 A,2 | C3 D E4 | %22
w: a- my- tié,|ton es- tat|et _ _ _ ton|es- * * *||stre, vueil- lant pen-|ser _ _|
 z2 E2 F2 F2 | E8 | z2 A2 G2 F2 | _B2 B2 A2 c2- | cB G2 A4 | z2 A,2 A,2 A,2 | C3 D E4 | %29
w: vueil- lant pen-|ser|ce que iay|me- ri- té, _|_ _ _ _|vueil- lant pen-|ser, _ _|
 z2 E2 F2 F2 | E8 | z2 A2 G2 F2 | _B2 B2 A2 c2- | cB G2 A4 | F8 |] %35
w: vueil- lant pen-|ser|ce que iay|me- ri- * *||té.|
V:3
 z8 | z2 A2 A2 A2 | c4 z2 A2 | A2 A2 c4 | z2 c2 d2 f2- | f2 e2 f3 e/d/ | c2 d2 e4 | d4 z2 e2 | %8
w: |Con- ti- nu-|er, con-|ti- nu- er|ie veulx ma|_ fer- me- * *||té, don-|
 e2 e2 A4 | z2 e2 f2 f2 | e2 c2 d4 | c4 z2 f2 | f2 f2 e2 de |"^b" fgaf g4 | f8 | z4 z2 c2 | %16
w: ne moy donc|ung pe- tit|à con- gnoi-|stre, ung|pe- tit à- con- *|* * * * gnoy-|stre,|ton|
 d2 f2 e4 | z2 e2 e2 g2 | f2 e4 f2- | fedc d4 | e8 | z2 A2 A2 A2 | c4 z2 A2 | A2 A2 c4 | %24
w: a- my- tié,|ton es- tat|et ton es-||tre,|vueil- lant pen-|ser, vueil-|lant pen- ser|
 z2 c2 d2 f2- | f2 e2 f3 e/d/ | c2 d2 e4 | d4 z4 | z2 A2 A2 A2 | c4 z2 A2 | A2 A2 c4 | %31
w: ce que iay|_ me- ri- * *||té,|vueil- lant pen-|ser, vueil-|lant pen- ser|
 z2 c2 d2 f2- | f2 e2 f3 e/d/ | c2 d2 e4 | d8 |] %35
w: ce que iay|_ me- * * *|* * ri-|té|
V:4
 z4 A4 | A2 A2 c3 B | AG A2 F2 D2 | A4 z2 A2 | G2 F2 _B3 A | G4 F3 G |"^b" A2 B2 A4 | F2 G4 A2 | %8
w: Con-|ti- nu- er _|_ _ _ _ _|* ie|veulx ma fer- *|||* * me-|
 E4 z4 | z2 A2 d2 d2 | cBAG FE D2 |"^b""^b" z2 A2 B2 B2 | A2 F2 G4 | d4 c4 | F8 | z4 z2 A2 | %16
w: té,|don- ne moy|donc _ _ _ _ _ _|ung pe- tit|à- con- gnoy-||stre,|ton|
 G2 F2 c4 | z2 A2 A2 G2 | A3 B c2 d2- |"^b""^b" dcBA B4 | A4 z2 A2 | A2 A2 c3 B | AG A2 F2 D2 | %23
w: a- my- tié,|ton es- tat|et _ _ ton|_ _ _ _ es-|tre, vueil-|lant pen- ser _|_ _ _ _ _|
 A4 z2 A2 | G2 F2 _B3 A | G4 F3 G |"^b" A2 B2 A4 | D4 z2 A2 | A2 A2 c3 B |"^#" AG A2 F2 D2 | %30
w: * ce|que iay me- *||* * ri-|té, vueil-|lant pen- ser _|_ _ _ _ _|
 A4 z2 A2 | G2 F2 _B3 A | G4 F3 G |"^b" A2 B2 A4 | D8 |] %35
w: * ce|que iay _ _|_ me- *|* * ri-|té.|

